gama.ui.shared/icons_svg/dark/generic/menu.undo.svg

<svg height="25" viewBox="-166.774 -3167.932 25 25" width="25" xmlns="http://www.w3.org/2000/svg" xmlns:xlink="http://www.w3.org/1999/xlink"><clipPath id="a"><path d="m-166.7741-3167.9315h25v25h-25zm5.37156 12.2742h.00941c1.3736-2.2017 3.79153-3.5375 6.3882-3.5375h.26343c3.9985 0 7.3008 3.1235 7.5172 7.1032.0094.0846.0094.715.0094 1.8346 0 .2635.20698.4704.47042.4704.26343 0 .47041-.2069.47041-.4704 0-1.1666-.00941-1.7687-.00941-1.8816-.24462-4.4784-3.96087-7.997-8.45802-7.997h-.26343c-2.92597 0-5.64495 1.5053-7.19731 3.9796-.14112.226-.06586.508.15054.6492.2258.1412.50804.0658.64916-.1505zm4.30898-.715h-4.23371v-4.2337c0-.2635-.20698-.4705-.47041-.4705-.26344 0-.47042.207-.47042.4705v4.704c0 .2635.20698.4705.47042.4705h4.70412c.26343 0 .47041-.207.47041-.4705 0-.2633-.20698-.4703-.47041-.4703z"/></clipPath><g fill="none"><path d="m-162.4341-3167.4315h16.32c2.12077 0 3.84 1.7192 3.84 3.84v16.32c0 2.1208-1.71923 3.84-3.84 3.84h-16.32c-2.12077 0-3.84-1.7192-3.84-3.84v-16.32c0-2.1208 1.71923-3.84 3.84-3.84z" fill="#666"/><path d="m-162.4341-3167.4315h16.32c2.12077 0 3.84 1.7192 3.84 3.84v16.32c0 2.1208-1.71923 3.84-3.84 3.84h-16.32c-2.12077 0-3.84-1.7192-3.84-3.84v-16.32c0-2.1208 1.71923-3.84 3.84-3.84z" stroke="#fff" stroke-linecap="round" stroke-linejoin="round" stroke-width=".25"/><path d="m-161.40254-3155.6573c-.14112.2163-.42336.2917-.64916.1505-.2164-.1412-.29166-.4232-.15054-.6492 1.55236-2.4743 4.27134-3.9796 7.19731-3.9796h.26343c4.49715 0 8.2134 3.5186 8.45802 7.997 0 .1129.00941.715.00941 1.8816 0 .2635-.20698.4704-.47041.4704-.26344 0-.47042-.2069-.47042-.4704 0-1.1196 0-1.75-.0094-1.8346-.2164-3.9797-3.5187-7.1032-7.5172-7.1032h-.26343c-2.59667 0-5.0146 1.3358-6.3882 3.5375zm4.30898-.715c.26343 0 .47041.207.47041.4703 0 .2635-.20698.4705-.47041.4705h-4.70412c-.26344 0-.47042-.207-.47042-.4705v-4.704c0-.2635.20698-.4705.47042-.4705.26343 0 .47041.207.47041.4705v4.2337z" fill="#666"/><path clip-path="url(#a)" d="m-161.40254-3155.6573c-.14112.2163-.42336.2917-.64916.1505-.2164-.1412-.29166-.4232-.15054-.6492 1.55236-2.4743 4.27134-3.9796 7.19731-3.9796h.26343c4.49715 0 8.2134 3.5186 8.45802 7.997 0 .1129.00941.715.00941 1.8816 0 .2635-.20698.4704-.47041.4704-.26344 0-.47042-.2069-.47042-.4704 0-1.1196 0-1.75-.0094-1.8346-.2164-3.9797-3.5187-7.1032-7.5172-7.1032h-.26343c-2.59667 0-5.0146 1.3358-6.3882 3.5375zm4.30898-.715c.26343 0 .47041.207.47041.4703 0 .2635-.20698.4705-.47041.4705h-4.70412c-.26344 0-.47042-.207-.47042-.4705v-4.704c0-.2635.20698-.4705.47042-.4705.26343 0 .47041.207.47041.4705v4.2337z" stroke="#fc6c7e" stroke-linejoin="round" stroke-width="2"/></g></svg>

<?xml version="1.0" encoding="UTF-8" standalone="no"?>
<!DOCTYPE svg PUBLIC "-//W3C//DTD SVG 1.1//EN" "http://www.w3.org/Graphics/SVG/1.1/DTD/svg11.dtd">
<svg xmlns:dc="http://purl.org/dc/elements/1.1/" version="1.1" xmlns="http://www.w3.org/2000/svg" xmlns:xl="http://www.w3.org/1999/xlink" viewBox="-166.7741 -3167.9315 25 25" width="25" height="25">
  <defs>
    <clipPath id="outer_stroke_clip_path">
      <path d="M -166.7741 -3167.9315 L -141.7741 -3167.9315 L -141.7741 -3142.9315 L -166.7741 -3142.9315 Z M -161.40254 -3155.6573 L -161.39313 -3155.6573 C -160.01953 -3157.859 -157.6016 -3159.1948 -155.00493 -3159.1948 L -154.7415 -3159.1948 C -150.743 -3159.1948 -147.4407 -3156.0713 -147.2243 -3152.0916 C -147.2149 -3152.007 -147.2149 -3151.3766 -147.2149 -3150.257 C -147.2149 -3149.9935 -147.00792 -3149.7866 -146.74448 -3149.7866 C -146.48105 -3149.7866 -146.27407 -3149.9935 -146.27407 -3150.257 C -146.27407 -3151.4236 -146.28348 -3152.0257 -146.28348 -3152.1386 C -146.5281 -3156.617 -150.24435 -3160.1356 -154.7415 -3160.1356 L -155.00493 -3160.1356 C -157.9309 -3160.1356 -160.64988 -3158.6303 -162.20224 -3156.156 C -162.34336 -3155.93 -162.2681 -3155.648 -162.0517 -3155.5068 C -161.8259 -3155.3656 -161.54366 -3155.441 -161.40254 -3155.6573 Z M -157.09356 -3156.3723 L -161.32727 -3156.3723 L -161.32727 -3160.606 C -161.32727 -3160.8695 -161.53425 -3161.0765 -161.79768 -3161.0765 C -162.06112 -3161.0765 -162.2681 -3160.8695 -162.2681 -3160.606 L -162.2681 -3155.902 C -162.2681 -3155.6385 -162.06112 -3155.4315 -161.79768 -3155.4315 L -157.09356 -3155.4315 C -156.83013 -3155.4315 -156.62315 -3155.6385 -156.62315 -3155.902 C -156.62315 -3156.1653 -156.83013 -3156.3723 -157.09356 -3156.3723 Z"/>
    </clipPath>
  </defs>
  <g id="SOURCES" stroke="none" stroke-dasharray="none" fill-opacity="1" stroke-opacity="1" fill="none">
    <title>SOURCES</title>
    <g id="SOURCES_Dark">
      <title>Dark</title>
      <g id="Graphic_11277">
        <path d="M -162.4341 -3167.4315 L -146.1141 -3167.4315 C -143.99333 -3167.4315 -142.2741 -3165.7123 -142.2741 -3163.5915 L -142.2741 -3147.2715 C -142.2741 -3145.1507 -143.99333 -3143.4315 -146.1141 -3143.4315 L -162.4341 -3143.4315 C -164.55487 -3143.4315 -166.2741 -3145.1507 -166.2741 -3147.2715 L -166.2741 -3163.5915 C -166.2741 -3165.7123 -164.55487 -3167.4315 -162.4341 -3167.4315 Z" fill="#666"/>
        <path d="M -162.4341 -3167.4315 L -146.1141 -3167.4315 C -143.99333 -3167.4315 -142.2741 -3165.7123 -142.2741 -3163.5915 L -142.2741 -3147.2715 C -142.2741 -3145.1507 -143.99333 -3143.4315 -146.1141 -3143.4315 L -162.4341 -3143.4315 C -164.55487 -3143.4315 -166.2741 -3145.1507 -166.2741 -3147.2715 L -166.2741 -3163.5915 C -166.2741 -3165.7123 -164.55487 -3167.4315 -162.4341 -3167.4315 Z" stroke="white" stroke-linecap="round" stroke-linejoin="round" stroke-width=".25"/>
      </g>
      <g id="Graphic_11276">
        <path d="M -161.40254 -3155.6573 C -161.54366 -3155.441 -161.8259 -3155.3656 -162.0517 -3155.5068 C -162.2681 -3155.648 -162.34336 -3155.93 -162.20224 -3156.156 C -160.64988 -3158.6303 -157.9309 -3160.1356 -155.00493 -3160.1356 L -154.7415 -3160.1356 C -150.24435 -3160.1356 -146.5281 -3156.617 -146.28348 -3152.1386 C -146.28348 -3152.0257 -146.27407 -3151.4236 -146.27407 -3150.257 C -146.27407 -3149.9935 -146.48105 -3149.7866 -146.74448 -3149.7866 C -147.00792 -3149.7866 -147.2149 -3149.9935 -147.2149 -3150.257 C -147.2149 -3151.3766 -147.2149 -3152.007 -147.2243 -3152.0916 C -147.4407 -3156.0713 -150.743 -3159.1948 -154.7415 -3159.1948 L -155.00493 -3159.1948 C -157.6016 -3159.1948 -160.01953 -3157.859 -161.39313 -3155.6573 Z M -157.09356 -3156.3723 C -156.83013 -3156.3723 -156.62315 -3156.1653 -156.62315 -3155.902 C -156.62315 -3155.6385 -156.83013 -3155.4315 -157.09356 -3155.4315 L -161.79768 -3155.4315 C -162.06112 -3155.4315 -162.2681 -3155.6385 -162.2681 -3155.902 L -162.2681 -3160.606 C -162.2681 -3160.8695 -162.06112 -3161.0765 -161.79768 -3161.0765 C -161.53425 -3161.0765 -161.32727 -3160.8695 -161.32727 -3160.606 L -161.32727 -3156.3723 Z" fill="#666"/>
        <path d="M -161.40254 -3155.6573 C -161.54366 -3155.441 -161.8259 -3155.3656 -162.0517 -3155.5068 C -162.2681 -3155.648 -162.34336 -3155.93 -162.20224 -3156.156 C -160.64988 -3158.6303 -157.9309 -3160.1356 -155.00493 -3160.1356 L -154.7415 -3160.1356 C -150.24435 -3160.1356 -146.5281 -3156.617 -146.28348 -3152.1386 C -146.28348 -3152.0257 -146.27407 -3151.4236 -146.27407 -3150.257 C -146.27407 -3149.9935 -146.48105 -3149.7866 -146.74448 -3149.7866 C -147.00792 -3149.7866 -147.2149 -3149.9935 -147.2149 -3150.257 C -147.2149 -3151.3766 -147.2149 -3152.007 -147.2243 -3152.0916 C -147.4407 -3156.0713 -150.743 -3159.1948 -154.7415 -3159.1948 L -155.00493 -3159.1948 C -157.6016 -3159.1948 -160.01953 -3157.859 -161.39313 -3155.6573 Z M -157.09356 -3156.3723 C -156.83013 -3156.3723 -156.62315 -3156.1653 -156.62315 -3155.902 C -156.62315 -3155.6385 -156.83013 -3155.4315 -157.09356 -3155.4315 L -161.79768 -3155.4315 C -162.06112 -3155.4315 -162.2681 -3155.6385 -162.2681 -3155.902 L -162.2681 -3160.606 C -162.2681 -3160.8695 -162.06112 -3161.0765 -161.79768 -3161.0765 C -161.53425 -3161.0765 -161.32727 -3160.8695 -161.32727 -3160.606 L -161.32727 -3156.3723 Z" stroke="#fc6c7e" stroke-linecap="butt" stroke-linejoin="round" stroke-width="2" clip-path="url(#outer_stroke_clip_path)"/>
      </g>
    </g>
  </g>
</svg>
